img/svg/net/ucbrowser.svg

<?xml version="1.0" encoding="iso-8859-1"?>
<!-- Generator: Adobe Illustrator 21.0.2, SVG Export Plug-In . SVG Version: 6.00 Build 0)  -->
<svg version="1.1" id="&#x56FE;&#x5C42;_1" xmlns="http://www.w3.org/2000/svg" xmlns:xlink="http://www.w3.org/1999/xlink" x="0px"
	 y="0px" viewBox="0 0 16 16" style="enable-background:new 0 0 16 16;" xml:space="preserve">
<path style="fill-rule:evenodd;clip-rule:evenodd;" d="M3.832,13.585c-0.364-0.466-1.154-1.98-0.304-3.669
	c1.154-2.33,4.068-2.155,4.918-4.892C8.811,3.8,8.507,2.286,6.868,1.413C5.532,0.714,3.953,1.005,2.921,1.529
	C1.16,2.461,0.735,3.684,0.735,3.684S1.463,2.927,2.556,3.16C3.224,3.276,4.074,4.033,3.71,5.256
	c-0.486,1.689-3.4,2.679-2.915,6.115c0.121,1.048,0.911,2.038,1.579,2.621c1.518,1.223,3.765,0.99,3.765,0.99
	S4.864,14.982,3.832,13.585L3.832,13.585z M14.033,9.391c-2.125-0.175-2.186-1.048-4.068-1.572C7.475,7.12,6.382,7.877,6.382,7.877
	c3.643-0.349,5.04,2.737,5.04,2.737s0.789,0.466,2.004-0.175c1.032-0.524,1.822-0.116,1.822-0.116S15.368,9.508,14.033,9.391
	L14.033,9.391z M8.568,12.187c0-1.107-0.972-2.038-2.125-2.038c-1.154,0-2.125,0.932-2.125,2.038s0.972,2.038,2.125,2.038
	C7.596,14.225,8.568,13.352,8.568,12.187L8.568,12.187z M6.382,13.119c-0.546,0-0.972-0.408-0.972-0.932
	c0-0.524,0.425-0.932,0.972-0.932c0.546,0,0.972,0.408,0.972,0.932C7.353,12.711,6.928,13.119,6.382,13.119L6.382,13.119z
	 M11.725,13.992c-0.486-0.175-1.154-0.233-1.154-0.233s0.668-1.398-0.061-3.087C9.964,9.391,8.386,8.46,7.05,8.518
	c-2.368,0-2.854,1.864-2.854,1.864s0.911-1.223,2.611-1.048c3.218,0.349,3.765,4.659,0.304,5.649c0,0,1.457,0,2.793-0.058
	c1.639-0.058,2.672-0.175,2.672-0.175S12.454,14.283,11.725,13.992L11.725,13.992z M11.118,7.528
	c1.518,0.582,1.761,1.165,3.218,1.107c0.668-0.058,0.911-0.233,0.911-0.233s0.182-1.165-0.607-2.33
	c-0.729-0.99-1.943-1.281-1.943-1.281s-0.061-0.466-0.304-0.874c-0.182-0.291-0.364-0.524-0.364-0.524s-0.304,0.233-0.486,0.757
	c-0.182,0.582-0.182,1.165-0.182,1.165s-0.182,0.233-0.972,0.699C9.661,6.421,8.325,6.945,8.325,6.945S9.357,6.829,11.118,7.528
	L11.118,7.528z"/>
</svg>

<svg xmlns="http://www.w3.org/2000/svg" viewBox="0 0 16 16"><title>ucbrowser</title><path d="M3.83,13.58a3.54,3.54,0,0,1-.3-3.67C4.68,7.59,7.6,7.76,8.45,5A3,3,0,0,0,6.87,1.41a4.44,4.44,0,0,0-3.95.12A4.46,4.46,0,0,0,.73,3.68a2.06,2.06,0,0,1,1.82-.52,1.58,1.58,0,0,1,1.15,2.1C3.22,6.95.31,7.94.8,11.37A4.53,4.53,0,0,0,2.37,14a5.78,5.78,0,0,0,3.76,1,3.12,3.12,0,0,1-2.31-1.4ZM14,9.39c-2.13-.17-2.19-1-4.07-1.57-2.49-.7-3.58.06-3.58.06a5,5,0,0,1,5,2.74,2.12,2.12,0,0,0,2-.17,2.09,2.09,0,0,1,1.82-.12s.12-.82-1.21-.93Zm-5.46,2.8a2.13,2.13,0,0,0-4.25,0,2.11,2.11,0,0,0,2.13,2,2.07,2.07,0,0,0,2.13-2Zm-2.19.93a.93.93,0,1,1,1-.93.94.94,0,0,1-1,.93Zm5.34.87a5.51,5.51,0,0,0-1.15-.23,4,4,0,0,0-.06-3.09A3.86,3.86,0,0,0,7,8.52,2.77,2.77,0,0,0,4.2,10.38a3,3,0,0,1,2.61-1C10,9.68,10.57,14,7.11,15c0,0,1.46,0,2.79-.06,1.64-.06,2.67-.17,2.67-.17a1.31,1.31,0,0,0-.85-.76Zm-.61-6.46c1.52.58,1.76,1.16,3.22,1.11a2,2,0,0,0,.91-.23,3.53,3.53,0,0,0-.61-2.33A3.76,3.76,0,0,0,12.7,4.79a2.58,2.58,0,0,0-.3-.87c-.18-.29-.36-.52-.36-.52a1.69,1.69,0,0,0-.49.76,4.41,4.41,0,0,0-.18,1.16,3.91,3.91,0,0,1-1,.7,22,22,0,0,1-2.06.93,6.44,6.44,0,0,1,2.79.58Z" style="fill-rule:evenodd"/></svg>
